X: 65
T: Hush the cat
M: 6/8
L: 1/8
R: jig
K: C
G2A c2e| dcA c2A|G2A c2e|dcA A2G|
G2A c2e| dcA Acd|eaa ged|ecA A2g|
G2A c2e| dcA c2A|G2A c2e|dcA A2G|
G2A cde| dcA c2d|eaa ged|ecA A3||
|:aba gag| ged ecA|aba gag|ede g3|
aba age|ged ecA|e3 ede|1 cAA A2e:|2 cAA A2G|]
F: from https://books.google.ie/books?id=_37AKncCJ8gC&lpg=PA86&ots=cMCeSv-ATs&dq=hush%20the%20cat%20grey%20larsen&pg=PA86#v=onepage&q=hush%20the%20cat%20grey%20larsen&f=false

